storage/app/icons/phosphoricons/fill/gas-pump-fill.svg

<svg xmlns="http://www.w3.org/2000/svg" fill="currentColor" viewBox="0 0 256 256"><path d="m241 69.66-19.34-19.32a8 8 0 0 0-11.32 11.32L229.66 81a8 8 0 0 1 2.34 5.63V168a8 8 0 0 1-16 0v-40a24 24 0 0 0-24-24h-16V56a24 24 0 0 0-24-24H72a24 24 0 0 0-24 24v152H32a8 8 0 0 0 0 16h160a8 8 0 0 0 0-16h-16v-88h16a8 8 0 0 1 8 8v40a24 24 0 0 0 48 0V86.63a23.85 23.85 0 0 0-7-16.97M144 120H80a8 8 0 0 1 0-16h64a8 8 0 0 1 0 16"/></svg>

<svg xmlns="http://www.w3.org/2000/svg" viewBox="0 0 256 256" fill="currentColor"><path d="M241,69.66,221.66,50.34a8,8,0,0,0-11.32,11.32L229.66,81A8,8,0,0,1,232,86.63V168a8,8,0,0,1-16,0V128a24,24,0,0,0-24-24H176V56a24,24,0,0,0-24-24H72A24,24,0,0,0,48,56V208H32a8,8,0,0,0,0,16H192a8,8,0,0,0,0-16H176V120h16a8,8,0,0,1,8,8v40a24,24,0,0,0,48,0V86.63A23.85,23.85,0,0,0,241,69.66ZM144,120H80a8,8,0,0,1,0-16h64a8,8,0,0,1,0,16Z"/></svg>
